src/items/19-suitcase.svg

<?xml version="1.0" encoding="UTF-8" standalone="no"?>
<svg
   xmlns:dc="http://purl.org/dc/elements/1.1/"
   xmlns:cc="http://creativecommons.org/ns#"
   xmlns:rdf="http://www.w3.org/1999/02/22-rdf-syntax-ns#"
   xmlns:svg="http://www.w3.org/2000/svg"
   xmlns="http://www.w3.org/2000/svg"
   xmlns:sodipodi="http://sodipodi.sourceforge.net/DTD/sodipodi-0.dtd"
   xmlns:inkscape="http://www.inkscape.org/namespaces/inkscape"
   viewBox="0 0 48 48"
   width="96px"
   height="96px"
   version="1.1"
   id="svg4630"
   sodipodi:docname="19-maleta_007.svg"
   inkscape:version="0.92.4 (5da689c313, 2019-01-14)">
  <metadata
     id="metadata4636">
    <rdf:RDF>
      <cc:Work
         rdf:about="">
        <dc:format>image/svg+xml</dc:format>
        <dc:type
           rdf:resource="http://purl.org/dc/dcmitype/StillImage" />
        <dc:title></dc:title>
      </cc:Work>
    </rdf:RDF>
  </metadata>
  <defs
     id="defs4634" />
  <sodipodi:namedview
     pagecolor="#ffffff"
     bordercolor="#666666"
     borderopacity="1"
     objecttolerance="10"
     gridtolerance="10"
     guidetolerance="10"
     inkscape:pageopacity="0"
     inkscape:pageshadow="2"
     inkscape:window-width="2490"
     inkscape:window-height="1376"
     id="namedview4632"
     showgrid="false"
     inkscape:zoom="8.809372"
     inkscape:cx="65.521649"
     inkscape:cy="54.450095"
     inkscape:window-x="70"
     inkscape:window-y="27"
     inkscape:window-maximized="1"
     inkscape:current-layer="svg4630" />
  <path
     fill="#795548"
     d="M27,8h-6c-1.105,0-2,0.895-2,2v3c0,0.552,0.448,1,1,1h1v-4h6v4h1c0.552,0,1-0.448,1-1v-3C29,8.895,28.105,8,27,8"
     id="path4618"
     style="fill:#4d4d4d" />
  <path
     fill="#FF8F00"
     d="M41,12H7c-1.105,0-2,0.895-2,2v24c0,1.105,0.895,2,2,2h34c1.105,0,2-0.895,2-2V14C43,12.895,42.105,12,41,12"
     id="path4620"
     style="fill:#b3b3b3" />
  <path
     fill="#78909C"
     d="M9 11H12V12H9zM36 11H39V12H36z"
     id="path4622" />
  <path
     fill="#D67C05"
     d="M13 12H15V40H13zM33 12H35V40H33z"
     id="path4624"
     style="fill:#808080" />
  <path
     inkscape:connector-curvature="0"
     style="fill:#666666;stroke-width:1"
     d="m 23.922146,15.45636 a 4,4 0 1 0 0,8 4,4 0 1 0 0,-8 z"
     id="path4626" />
  <path
     inkscape:connector-curvature="0"
     style="fill:#999999;stroke-width:1"
     d="m 40.922146,27.94136 -12.554,6.515 -2.446,-4.483 12.554,-6.517 z"
     id="path4628" />
</svg>

<svg xmlns="http://www.w3.org/2000/svg" viewBox="0 0 48 48" width="96" height="96"><path fill="#4d4d4d" d="M27 8h-6a2 2 0 00-2 2v3a1 1 0 001 1h1v-4h6v4h1a1 1 0 001-1v-3a2 2 0 00-2-2"/><path fill="#b3b3b3" d="M41 12H7a2 2 0 00-2 2v24a2 2 0 002 2h34a2 2 0 002-2V14a2 2 0 00-2-2"/><path fill="#78909C" d="M9 11h3v1H9zm27 0h3v1h-3z"/><path fill="gray" d="M13 12h2v28h-2zm20 0h2v28h-2z"/><path d="M23.922 15.456a4 4 0 100 8 4 4 0 100-8z" fill="#666"/><path d="M40.922 27.941l-12.554 6.515-2.446-4.483 12.554-6.517z" fill="#999"/></svg>
